X:1
T:Give Me Jesus Alone
T:Give Me Jesus Alone
T:Daniel O. Teasley, pub.1911
T:D. O. T.
T:PUBLIC DOMAIN
T:PUBLIC DOMAIN
C:Daniel O. Teasley, pub.1911
Z:D. O. T.
Z:PUBLIC DOMAIN
%%score ( 1 2 ) ( 3 4 )
L:1/8
Q:1/4=80
M:4/4
K:D
V:1 treble nm="Treble"
V:2 treble 
V:3 bass nm="Bass"
V:4 bass 
V:1
 D E | F2 d2 c2 B2 | A2 F4 D[DE] | [DF]4 [DE]3 D | [CA]6 | D E | F2 d2 c2 B2 | A2 F4 D[DE] | %8
w: 1.~I am|here a pil- grim|stran- ger, Give me|Je- sus a-|lone;|He will|guard my soul from|dan- ger, Give me|
w: 2.~When the|pow’rs of sin be-|set me, Give me|Je- sus a-|lone;|When my|friends on earth for-|get me, Give me|
w: 3.~Though the|world its praise should|of- fer, Give me|Je- sus a-|lone;|With my|Lord I’ll meek- ly|suf- fer, Give me|
w: 4.~When my|heart for joy is|sing- ing, Give me|Je- sus a-|lone;|Or when|pain my heart is|wring- ing, Give me|
w: 5.~Pass- ing|through life’s ver- dant|mead- ow, Give me|Je- sus a-|lone;|Or through|death’s dark gloom- y|shad- ow, Give me|
 [DF]4 [CE]3 D | [A,D]6 ||"^Refrain" D [DE] | [DF]4 [DE]3 D | A6 [CE] [DF] | [EG]4 [DF]3 [CE] | %14
w: Je- sus a-|lone.|Give me|Je- sus a-|lone, Give me|Je- sus a-|
w: Je- sus a-|lone.|||||
w: Je- sus a-|lone.|||||
w: Je- sus a-|lone.|||||
w: Je- sus a-|lone.|||||
 [DF]6 | D E | F2 d2 c2 B2 | A2 F4 D[DE] | [DF]4 [CE]3 D | D6 |] %20
w: lone;|Till I|reach my home in|glo- ry Give me|Je- sus a-|lone.|
w: |Eve- ry|hour and eve- ry|mo- ment, * *|||
w: |Let the|world de- ride or|flat- ter, * *|||
w: |In the|sun- shine or the|shad- ow, * *|||
w: |Wheth- er|life or death a-|wait me, * *|||
V:2
 z2 | x8 | z6 D z | z4 z3 D | x6 | z2 | x8 | z6 D z | z4 z3 D | x6 || D z | z4 z3 D | C2 D2 E2 z2 | %13
 x8 | x6 | z2 | x8 | z6 D z | z4 z3 D | A,2 B,2 A,2 |] %20
V:3
 F, G, | A,2 B,2 A,2 G,2 | F,2 A,4 [D,F,][D,G,] | [D,A,]4 [D,G,]3 [D,F,] | [A,,E,]6 | F, G, | %6
w: ||||||
 A,2 B,2 A,2 G,2 | F,2 A,4 [D,F,][D,G,] | [A,,A,]4 [A,,G,]3 [D,F,] | [D,F,]6 || [D,F,] [D,G,] | %11
w: |||||
 [D,A,]4 [D,G,]3 [D,F,] | E,6 [A,,A,] [A,,A,] | [A,,A,]4 [A,,A,]3 [A,,A,] | [D,A,]6 | F, G, | %16
w: |||||
 A,2 B,2 A,2 G,2 | F,2 A,4 [D,F,][D,G,] | [A,,A,]4 [A,,G,]3 [D,F,] | F,2 G,2 F,2 |] %20
w: |||* a- lone.|
V:4
 z2 | x8 | z6 z2 | x8 | x6 | z2 | x8 | z6 z2 | x8 | x6 || x2 | x8 | A,,2 B,,2 C,2 z2 | x8 | x6 | %15
w: ||||||||||||* a- lone,|||
 z2 | x8 | z6 z2 | x8 | D,6 |] %20
w: |||||

